my_site/img/whoweare/people.svg

<svg width="32" height="32" viewBox="0 0 32 32" fill="none" xmlns="http://www.w3.org/2000/svg">
<path fill-rule="evenodd" clip-rule="evenodd" d="M18.2367 8.77151C17.7729 9.09308 17.2497 9.31905 16.6976 9.43623C16.1456 9.55342 15.5757 9.55949 15.0212 9.45407C14.4668 9.34865 13.9389 9.13385 13.4684 8.82223C12.9979 8.5106 12.5941 8.10838 12.2807 7.63904C11.9673 7.1697 11.7505 6.64263 11.643 6.08861C11.5354 5.53458 11.5393 4.96468 11.6544 4.41218C11.7695 3.85967 11.9935 3.33562 12.3133 2.8706C12.6331 2.40559 13.0423 2.00893 13.517 1.70376C14.4544 1.08466 15.5986 0.861813 16.6998 1.08393C17.8009 1.30605 18.7693 1.95506 19.3933 2.88911C20.0173 3.82315 20.2462 4.96625 20.0298 6.06853C19.8135 7.17081 19.1696 8.14262 18.2388 8.77151H18.2367ZM17.0573 3.47176C16.8259 3.30528 16.5633 3.18706 16.2853 3.12415C16.0072 3.06124 15.7193 3.05493 15.4388 3.10558C15.1583 3.15622 14.8908 3.26281 14.6523 3.41897C14.4138 3.57514 14.2091 3.7777 14.0505 4.0146C13.8919 4.25149 13.7826 4.51788 13.7291 4.79789C13.6756 5.07791 13.679 5.36583 13.739 5.64451C13.7991 5.92319 13.9146 6.18694 14.0788 6.42004C14.2429 6.65315 14.4522 6.85086 14.6943 7.00139C15.162 7.28552 15.7214 7.37824 16.2558 7.26023C16.7902 7.14222 17.2585 6.82258 17.563 6.36789C17.8676 5.9132 17.985 5.35852 17.8908 4.81941C17.7966 4.2803 17.498 3.79833 17.0573 3.47389V3.47176ZM22.6036 3.53551C23.2164 3.12326 23.9539 2.93762 24.6889 3.01054C25.4239 3.08346 26.1105 3.41038 26.6304 3.93501C27.0009 4.30848 27.2741 4.76715 27.426 5.27079C27.578 5.77443 27.604 6.30766 27.5018 6.82371C27.3997 7.33975 27.1724 7.82284 26.8401 8.23061C26.5077 8.63838 26.0804 8.95837 25.5956 9.16251C25.0133 9.40598 24.3715 9.47011 23.7526 9.34669C23.1336 9.22328 22.5656 8.91794 22.1212 8.46976C21.7872 8.13405 21.5315 7.72865 21.3725 7.28259C21.2135 6.83653 21.155 6.36083 21.2013 5.88954C21.2476 5.41825 21.3975 4.96302 21.6403 4.55643C21.8831 4.14984 22.2127 3.80194 22.6057 3.53764L22.6036 3.53551ZM23.6236 6.95676C23.8231 7.15543 24.0933 7.2667 24.3749 7.2661C24.5143 7.2658 24.6523 7.23805 24.7809 7.18443C24.9096 7.13081 25.0265 7.05236 25.1249 6.95357C25.2232 6.85479 25.3012 6.73759 25.3543 6.60868C25.4073 6.47977 25.4345 6.34167 25.4342 6.20226C25.4339 6.06285 25.4062 5.92486 25.3525 5.79618C25.2989 5.66749 25.2205 5.55063 25.1217 5.45226C24.9238 5.25328 24.6564 5.13899 24.3758 5.13351C24.2357 5.13323 24.0968 5.16073 23.9674 5.21442C23.8379 5.26811 23.7204 5.34694 23.6216 5.44633C23.5228 5.54573 23.4447 5.66372 23.3918 5.7935C23.3388 5.92327 23.3122 6.06224 23.3133 6.20239C23.314 6.48539 23.4253 6.7569 23.6236 6.95889V6.95676ZM5.65455 25.3975H9.5008V27.5331H5.65455C4.98123 27.5271 4.3378 27.2542 3.8653 26.7745C3.39099 26.293 3.12533 25.6441 3.1258 24.9683V21.122C2.8397 21.1124 2.5585 21.045 2.29919 20.9237C2.03988 20.8025 1.80783 20.6299 1.61705 20.4165C1.41433 20.2112 1.25524 19.967 1.14934 19.6985C1.04343 19.4301 0.992909 19.1431 1.0008 18.8546V14.2179C1.00718 13.2149 1.40455 12.2565 2.1058 11.5446C2.80493 10.8413 3.75055 10.4396 4.7408 10.4333H8.6508C8.1234 11.0614 7.72612 11.788 7.48205 12.571H4.7408C4.30951 12.5834 3.89915 12.7597 3.5933 13.064C3.29287 13.3729 3.1251 13.787 3.1258 14.2179V18.9609H5.2508V24.9661C5.24587 25.024 5.25275 25.0823 5.27101 25.1375C5.28928 25.1926 5.31855 25.2435 5.35705 25.287C5.44247 25.353 5.54664 25.3902 5.65455 25.3933V25.3975ZM21.167 11.5468C20.8193 11.1957 20.4057 10.9167 19.9498 10.726C19.494 10.5353 19.0049 10.4365 18.5108 10.4354H13.2408C12.2502 10.4433 11.3029 10.8428 10.6058 11.5468C9.90455 12.2586 9.50718 13.217 9.5008 14.22V20.9733C9.4978 21.5531 9.71853 22.1118 10.1171 22.533C10.3081 22.7462 10.5402 22.9185 10.7994 23.0397C11.0587 23.161 11.3398 23.2286 11.6258 23.2385V28.1749C11.6238 28.5118 11.6885 28.8458 11.8161 29.1576C11.9438 29.4695 12.1319 29.7529 12.3696 29.9918C12.7521 30.3488 13.2344 30.5804 13.7508 30.6548H18.0008C18.5985 30.5763 19.1461 30.2797 19.5384 29.8219C19.9306 29.3642 20.1398 28.7776 20.1258 28.1749V23.2364C20.4119 23.2268 20.6931 23.1594 20.9524 23.0381C21.2117 22.9169 21.4438 22.7443 21.6346 22.5309C21.8371 22.3259 21.9961 22.082 22.102 21.814C22.2079 21.5459 22.2585 21.2592 22.2508 20.9711V14.2179C22.2523 13.2195 21.8633 12.2601 21.167 11.5446V11.5468ZM20.1258 21.0774H18.0008V28.1749C17.9987 28.2869 17.953 28.3937 17.8733 28.4724C17.837 28.5153 17.7913 28.5492 17.7396 28.5713C17.688 28.5935 17.6319 28.6032 17.5758 28.5999H14.1546C14.0435 28.5947 13.9384 28.5483 13.8598 28.4697C13.7812 28.3911 13.7347 28.2859 13.7296 28.1749V21.0774H11.6258V14.2179C11.6258 13.7865 11.7937 13.3721 12.0933 13.064C12.3992 12.7597 12.8095 12.5834 13.2408 12.571H18.5108C18.8327 12.5767 19.146 12.6762 19.4121 12.8574C19.6782 13.0386 19.8857 13.2936 20.0089 13.591C20.0898 13.7899 20.1296 14.0032 20.1258 14.2179V21.0774ZM26.0971 27.531H22.2508V25.3954H26.0758C26.1837 25.3924 26.2879 25.3552 26.3733 25.2891C26.4161 25.2473 26.4496 25.1969 26.4715 25.1413C26.4935 25.0856 26.5035 25.0259 26.5008 24.9661V18.9609H28.6258V14.2179C28.6265 13.787 28.4587 13.3729 28.1583 13.064C27.8524 12.7597 27.4421 12.5834 27.0108 12.571H24.2696C24.0256 11.788 23.6283 11.0613 23.1008 10.4333H27.0108C28.0012 10.4423 28.9481 10.8417 29.6458 11.5446C30.347 12.2565 30.7444 13.2149 30.7508 14.2179V18.8546C30.7508 19.4348 30.5319 19.9915 30.1367 20.4123C29.7414 20.8351 29.2017 21.088 28.6258 21.1199V24.9661C28.6258 25.644 28.3602 26.2921 27.8863 26.7724C27.4138 27.2521 26.7704 27.5249 26.0971 27.531ZM7.3758 2.99576C6.74346 2.99503 6.12531 3.18314 5.60057 3.536C5.07583 3.88885 4.66842 4.39037 4.43055 4.97626C4.19049 5.56195 4.12817 6.20536 4.25136 6.82623C4.37456 7.4471 4.67781 8.01797 5.1233 8.46764C5.56863 8.91678 6.13774 9.22298 6.75793 9.34712C7.37812 9.47126 8.02124 9.4077 8.60514 9.16456C9.18903 8.92142 9.68719 8.50975 10.036 7.98212C10.3848 7.45449 10.5684 6.83486 10.5633 6.20239C10.5633 5.35239 10.2276 4.53639 9.6283 3.93501C9.33323 3.63779 8.98233 3.40181 8.59577 3.24063C8.20921 3.07944 7.79462 2.99622 7.3758 2.99576ZM7.3758 7.27126C7.23565 7.27155 7.09684 7.24405 6.96739 7.19035C6.83793 7.13666 6.72041 7.05784 6.6216 6.95844C6.5228 6.85905 6.44468 6.74105 6.39176 6.61128C6.33885 6.48151 6.31218 6.34253 6.3133 6.20239C6.31385 5.92017 6.42577 5.64959 6.62473 5.44944C6.82368 5.24928 7.0936 5.13575 7.3758 5.13351C7.65714 5.13847 7.92548 5.25287 8.12386 5.45244C8.32223 5.652 8.43503 5.92102 8.4383 6.20239C8.43775 6.4846 8.32583 6.75519 8.12688 6.95534C7.92792 7.15549 7.658 7.26902 7.3758 7.27126Z" fill="#FF7B47"/>
</svg>

<svg width="32" height="32" fill="none" xmlns="http://www.w3.org/2000/svg"><path fill-rule="evenodd" clip-rule="evenodd" d="M18.237 8.772a4.25 4.25 0 11-4.72-7.068 4.25 4.25 0 014.722 7.068h-.002zm-1.18-5.3a2.125 2.125 0 10-2.363 3.53 2.125 2.125 0 002.363-3.528v-.002zm5.547.064a3.175 3.175 0 014.026.399 3.215 3.215 0 01-1.034 5.228 3.17 3.17 0 01-3.475-.693 3.213 3.213 0 01.485-4.932l-.002-.002zm1.02 3.42a1.061 1.061 0 101.498-1.504 1.082 1.082 0 00-.746-.318 1.06 1.06 0 00-1.063 1.068c.001.283.112.555.31.757v-.002zM5.654 25.399h3.847v2.135H5.655a2.543 2.543 0 01-1.79-.759 2.571 2.571 0 01-.74-1.806v-3.846a2.118 2.118 0 01-1.508-.706 2.139 2.139 0 01-.616-1.561v-4.637a3.844 3.844 0 011.105-2.673 3.75 3.75 0 012.635-1.112h3.91a6.188 6.188 0 00-1.169 2.138H4.741a1.696 1.696 0 00-1.148.493c-.3.309-.468.723-.467 1.154v4.743H5.25v6.005a.43.43 0 00.106.321.51.51 0 00.298.106v.005zm15.513-13.851a3.75 3.75 0 00-2.656-1.112h-5.27a3.75 3.75 0 00-2.635 1.112A3.843 3.843 0 009.5 14.22v6.753c-.003.58.218 1.139.616 1.56a2.124 2.124 0 001.509.705v4.937a2.555 2.555 0 00.744 1.817 2.56 2.56 0 001.38.663H18a2.444 2.444 0 002.126-2.48v-4.939a2.118 2.118 0 001.509-.705 2.139 2.139 0 00.616-1.56v-6.753a3.825 3.825 0 00-1.084-2.673v.002zm-1.041 9.53H18v7.098a.43.43 0 01-.128.297.361.361 0 01-.297.128h-3.421a.446.446 0 01-.425-.425v-7.098h-2.104v-6.86c0-.43.168-.845.467-1.153a1.7 1.7 0 011.148-.493h5.27a1.653 1.653 0 011.498 1.02c.08.199.12.412.117.627v6.86zm5.971 6.454h-3.846v-2.136h3.825a.51.51 0 00.297-.106.424.424 0 00.128-.323v-6.005h2.125v-4.743c0-.431-.167-.845-.468-1.154a1.696 1.696 0 00-1.147-.493H24.27a6.184 6.184 0 00-1.17-2.138h3.91c.991.01 1.938.409 2.636 1.112a3.844 3.844 0 011.105 2.673v4.637c0 .58-.22 1.136-.614 1.557a2.236 2.236 0 01-1.511.708v3.846a2.57 2.57 0 01-.74 1.806 2.544 2.544 0 01-1.789.759zM7.376 2.996a3.175 3.175 0 00-2.945 1.98 3.224 3.224 0 00.692 3.492 3.181 3.181 0 005.44-2.266 3.212 3.212 0 00-1.967-2.961 3.179 3.179 0 00-1.22-.245zm0 4.275a1.06 1.06 0 01-1.063-1.069 1.071 1.071 0 011.063-1.068 1.082 1.082 0 011.062 1.068 1.071 1.071 0 01-1.062 1.07z" fill="#FF7B47"/></svg>
